X:2
T:{\AA}r 1718
R:s{\aa}ng
H:Jag har f{\aa}tt denna s{\aa}ng fr{\aa}n Titti Knutsson, som f{\aa}tt den fr{\aa}n en v\"an
H:som f{\aa}tt den fr{\aa}n sin far.
H:S{\aa}ngen \"ar ett slags parodi p{\aa} de bev\"aringsvisor som finns med mer
H:seri\"ost tema.
Z:id:hn-sang-2
M:6/8
L:1/8
K:G
D | G2G E2E | D3 B,2D | G2G A2A | B3-B2
G | E2E E2E | D3 G2G | A2A F2F | G3-G ||
GG | BBB BBB | AAA DDD | GGG G2E | DDD B,2
B, | C2C E2E | D3 G2G | A2A F2F | G3-G2 ||
W:{\AA}r sjuttonhundra arton, ja' ut ti' he'a for
W:M\"a' sju riksdaler banko {\aa} mat i p\^ose stor.
W:Skoa roale roale kokeleko, l\"at p{\aa} hagale-p\^ojka f\"arnemo tro,
W:M\"a' sju riksdaler banko {\aa} mat i p\^ose stor.
W:
W:{\AA} far min han sa te' mej ja' sku' halt e' lita smul,
W:{\AA} mor min ho sa te' mej ja' sku' rulla s\^om ett hjul,
W:Skoa...
W:
W:{\AA} n\"ar ja' k\^om p{\aa} v\"agen gav l\"ojtnant te' ett skr\"an,
W:{\AA} ropte buss p{\aa}'n l\"ansman, va' fan \"a' d\"a f\"or f\"an?
W:
W:{\AA} n\"ar ja' k\^om p{\aa} he'a, d{\aa} sa' di ja' va' lat,
W:D{\aa} k\^om jag ner te' k\"oket, d\"ar fick ja' laga mat.
W:
W:Var m\^orr\^on kl\^ocka fyra f{\aa}r ja' upp {\aa} hugga ve'
W:{\aa} sedan \"osa \"artera m\"a' ena storer schlev.
W:
W:F\"or Gud {\aa} fosterlandet va l\^ovet i min sj\"al,
W:Ja' r\"orde \^om i gr\"oten f\"or fosterlandets v\"al.

